trunk/data/flags/france_old.svg

<?xml version="1.0" encoding="UTF-8" standalone="no"?>
<svg
   xmlns:dc="http://purl.org/dc/elements/1.1/"
   xmlns:cc="http://creativecommons.org/ns#"
   xmlns:rdf="http://www.w3.org/1999/02/22-rdf-syntax-ns#"
   xmlns:svg="http://www.w3.org/2000/svg"
   xmlns="http://www.w3.org/2000/svg"
   xmlns:sodipodi="http://sodipodi.sourceforge.net/DTD/sodipodi-0.dtd"
   xmlns:inkscape="http://www.inkscape.org/namespaces/inkscape"
   height="240"
   width="360"
   id="svg1350"
   version="1.1"
   inkscape:version="0.47 r22583"
   sodipodi:docname="france_old.svg">
  <metadata
     id="metadata27">
    <rdf:RDF>
      <cc:Work
         rdf:about="">
        <dc:format>image/svg+xml</dc:format>
        <dc:type
           rdf:resource="http://purl.org/dc/dcmitype/StillImage" />
      </cc:Work>
    </rdf:RDF>
  </metadata>
  <defs
     id="defs1352">
    <inkscape:perspective
       sodipodi:type="inkscape:persp3d"
       inkscape:vp_x="0 : 108.07086 : 1"
       inkscape:vp_y="0 : 1000 : 0"
       inkscape:vp_z="359.64566 : 108.07086 : 1"
       inkscape:persp3d-origin="179.82283 : 72.047241 : 1"
       id="perspective29" />
    <defs
       id="defs5117" />
    <sodipodi:namedview
       id="namedview5116" />
  </defs>
  <sodipodi:namedview
     bordercolor="#000000"
     borderlayer="top"
     borderopacity="1"
     id="base"
     showgrid="false"
     inkscape:zoom="1.0918762"
     inkscape:cx="178.90698"
     inkscape:cy="108.07086"
     inkscape:window-width="884"
     inkscape:window-height="590"
     inkscape:window-x="2021"
     inkscape:window-y="42"
     inkscape:window-maximized="0"
     inkscape:current-layer="svg1350" />
  <rect
     y="-1.4446777e-14"
     x="0"
     width="360"
     style="font-size:12px;fill:#000099;fill-rule:evenodd"
     id="rect625"
     height="240" />
  <g
     transform="translate(-15.92385,9.538828)"
     id="g897">
    <path
       transform="translate(-1.875,-6.09e-6)"
       style="font-size:12px;fill:#ffd700;fill-rule:evenodd;stroke:#000000;stroke-width:1.28750002"
       sodipodi:nodetypes="cssccssccccc"
       id="path628"
       d="m 128.2868,96.94299 c 11.1976,-4.43201 16.7101,-11.14046 17.302,-20.61109 0.3796,-5.69344 -5.3032,-12.37133 -11.3869,-12.52561 -19.0054,-0.51402 -25.3594,30.47215 -25.2448,38.03531 0.8024,-0.002 4.7559,-0.0812 5.7367,-0.0432 0.8662,-4.77644 0.1223,-10.62782 6.1953,-15.56215 6.073,-4.93433 8.758,-1.17438 9.5172,1.86214 0.7592,3.03649 -2.8031,9.15334 -2.1195,8.84462 l 0,0 0,0 0,-1e-5 0,0 0,-1e-5 z" />
    <path
       transform="translate(-1.875,-6.09e-6)"
       style="font-size:12px;fill:#ffd700;fill-rule:evenodd;stroke:#000000;stroke-width:1.28750002"
       sodipodi:nodetypes="cssccssccccc"
       id="path629"
       d="m 77.52559,96.94296 c -11.1976,-4.43201 -16.7101,-11.14046 -17.302,-20.61109 -0.3796,-5.69344 5.3032,-12.37133 11.3869,-12.52561 19.00532,-0.51402 25.35939,30.47215 25.24476,38.03534 -0.80239,-0.002 -4.75592,-0.0813 -5.7367,-0.0433 -0.86617,-4.77637 -0.12229,-10.62775 -6.19528,-15.56208 -6.07298,-4.93433 -8.75798,-1.17438 -9.51718,1.86214 -0.7592,3.03649 2.8031,9.15334 2.1195,8.84462 l 0,0 0,0 0,-1e-5 0,0 0,-1e-5 z" />
    <path
       transform="translate(-1.875,-6.09e-6)"
       style="font-size:12px;fill:#ffd700;fill-rule:evenodd;stroke:#000000;stroke-width:1.28750002"
       sodipodi:nodetypes="cccccccc"
       id="path630"
       d="m 103.0642,27.66385 c 12.9141,13.42836 16.3819,27.08588 7.7716,48.96379 -2.9536,7.3074 -4.2036,16.07569 -4.0823,25.18966 -1.25,0.0289 -6.5716,-0.0318 -7.83219,-0.1213 C 99.03205,92.69272 97.53937,83.21757 94.59638,75.78884 84.62527,53.44678 91.81132,38.29173 102.7214,27.66385 l 0.1714,0 0.1714,0 0,0 z" />
    <path
       transform="translate(-1.875,-6.09e-6)"
       style="font-size:12px;fill:#ffd700;fill-rule:evenodd;stroke:#000000;stroke-width:1.28750002"
       sodipodi:nodetypes="cccccccccccccc"
       id="path631"
       d="m 109.8489,106.9771 c 2.644,7.0568 7.3107,9.7239 11.1253,11.5928 -5.8141,2.7527 -12.534,-0.2369 -13.7986,-1.6602 0.1538,1.9898 0.3113,7.3668 -0.415,10.9984 -0.4919,2.9284 -1.737,4.6154 -3.8391,6.9518 -2.1789,-2.2827 -3.52651,-4.1222 -4.25282,-6.7162 -0.88256,-3.7658 0.05127,-9.1075 -0.02685,-11.1021 -1.00827,1.2402 -9.05014,4.2248 -14.34181,1.6308 4.92667,-2.1472 9.70077,-4.6472 11.25469,-11.8272 0.57619,0.0355 12.84159,0.0281 14.29419,0.0281 l 0,0.1038 0,0 0,0 0,0 0,0 z" />
    <rect
       y="102.02856"
       x="87.443443"
       width="30.599674"
       transform="translate(-1.875,-6.09e-6)"
       style="font-size:12px;fill:#ffd700;fill-rule:evenodd;stroke:#000000;stroke-width:1.17855096"
       id="rect639"
       height="4.5517688" />
  </g>
  <g
     transform="translate(12.82616,9.806085)"
     id="g903">
    <path
       transform="translate(-1.875,-6.09e-6)"
       style="font-size:12px;fill:#ffd700;fill-rule:evenodd;stroke:#000000;stroke-width:1.28750002"
       sodipodi:nodetypes="cssccssccccc"
       id="path614"
       d="m 289.3221,96.94298 c 11.1976,-4.43201 16.7101,-11.14046 17.302,-20.61109 0.3796,-5.69344 -5.3032,-12.37133 -11.3869,-12.52561 -19.0054,-0.51402 -25.3594,30.47215 -25.2448,38.03532 0.8024,-0.002 4.7559,-0.0812 5.7367,-0.0432 0.8662,-4.77645 0.1223,-10.62783 6.1953,-15.56216 6.073,-4.93433 8.758,-1.17438 9.5172,1.86214 0.7592,3.03649 -2.8031,9.15334 -2.1195,8.84462 l 0,0 0,0 0,-1e-5 0,0 0,-10e-6 z" />
    <path
       transform="translate(-1.875,-6.09e-6)"
       style="font-size:12px;fill:#ffd700;fill-rule:evenodd;stroke:#000000;stroke-width:1.28750002"
       sodipodi:nodetypes="cssccssccccc"
       id="path615"
       d="m 238.5609,96.94295 c -11.1976,-4.43201 -16.7101,-11.14046 -17.302,-20.61109 -0.3796,-5.69344 5.3032,-12.37133 11.3869,-12.52561 19.0054,-0.51402 25.3594,30.47215 25.2448,38.03535 -0.8024,-0.002 -4.7559,-0.0813 -5.7367,-0.0433 -0.8662,-4.77638 -0.1223,-10.62776 -6.1953,-15.56209 -6.073,-4.93433 -8.758,-1.17438 -9.5172,1.86214 -0.7592,3.03649 2.8031,9.15334 2.1195,8.84462 l 0,0 0,0 0,-1e-5 0,0 0,-1e-5 z" />
    <path
       transform="translate(-1.875,-6.09e-6)"
       style="font-size:12px;fill:#ffd700;fill-rule:evenodd;stroke:#000000;stroke-width:1.28750002"
       sodipodi:nodetypes="cccccccc"
       id="path616"
       d="m 264.0995,27.66384 c 12.9141,13.42836 16.3819,27.08588 7.7716,48.96379 -2.9536,7.3074 -4.2036,16.07569 -4.0823,25.18967 -1.25,0.0289 -6.5716,-0.0318 -7.8321,-0.1213 0.1107,-9.00329 -1.382,-18.47844 -4.325,-25.90717 -9.9711,-22.34206 -2.785,-37.49711 8.125,-48.12499 l 0.1714,0 0.1714,0 0,0 z" />
    <path
       transform="translate(-1.875,-6.09e-6)"
       style="font-size:12px;fill:#ffd700;fill-rule:evenodd;stroke:#000000;stroke-width:1.28750002"
       sodipodi:nodetypes="cccccccccccccc"
       id="path617"
       d="m 270.8842,106.9771 c 2.644,7.0568 7.3107,9.7239 11.1253,11.5928 -5.8141,2.7527 -12.534,-0.2369 -13.7986,-1.6602 0.1538,1.9898 0.3113,7.3668 -0.415,10.9984 -0.4919,2.9284 -1.737,4.6154 -3.8391,6.9518 -2.1789,-2.2827 -3.5265,-4.1222 -4.2528,-6.7162 -0.8825,-3.7658 0.0513,-9.1075 -0.0268,-11.1021 -1.0083,1.2402 -9.0502,4.2248 -14.3418,1.6308 4.9266,-2.1472 9.7007,-4.6472 11.2547,-11.8272 0.5761,0.0355 12.8415,0.0281 14.2941,0.0281 l 0,0.1038 0,0 0,0 0,0 0,0 z" />
    <rect
       y="102.02855"
       x="248.47879"
       width="30.599672"
       transform="translate(-1.875,-6.09e-6)"
       style="font-size:12px;fill:#ffd700;fill-rule:evenodd;stroke:#000000;stroke-width:1.17855096"
       id="rect618"
       height="4.5517683" />
  </g>
  <g
     transform="translate(-1.30317,25.185434)"
     id="g909">
    <path
       transform="translate(-1.875,-6.09e-6)"
       style="font-size:12px;fill:#ffd700;fill-rule:evenodd;stroke:#000000;stroke-width:1.28750002"
       sodipodi:nodetypes="cssccssccccc"
       id="path619"
       d="m 208.8044,151.695 c 11.1976,-4.432 16.7101,-11.1405 17.302,-20.6111 0.3796,-5.6934 -5.3032,-12.3713 -11.3869,-12.5256 -19.0054,-0.514 -25.3594,30.4721 -25.2448,38.0353 0.8024,-0.002 4.7559,-0.0812 5.7367,-0.0432 0.8662,-4.7764 0.1223,-10.6278 6.1953,-15.5622 6.073,-4.9343 8.758,-1.1743 9.5172,1.8622 0.7592,3.0365 -2.8031,9.1533 -2.1195,8.8446 l 0,0 0,0 0,0 0,0 0,0 z" />
    <path
       transform="translate(-1.875,-6.09e-6)"
       style="font-size:12px;fill:#ffd700;fill-rule:evenodd;stroke:#000000;stroke-width:1.28750002"
       sodipodi:nodetypes="cssccssccccc"
       id="path620"
       d="m 158.0432,151.695 c -11.1976,-4.4321 -16.7101,-11.1405 -17.302,-20.6111 -0.3796,-5.6935 5.3032,-12.3714 11.3869,-12.5256 19.0054,-0.5141 25.3594,30.4721 25.2448,38.0353 -0.8024,-0.002 -4.7559,-0.0813 -5.7367,-0.0433 -0.8662,-4.7764 -0.1223,-10.6278 -6.1953,-15.5621 -6.073,-4.9343 -8.758,-1.1744 -9.5172,1.8622 -0.7592,3.0364 2.8031,9.1533 2.1195,8.8446 l 0,0 0,0 0,0 0,0 0,0 z" />
    <path
       transform="translate(-1.875,-6.09e-6)"
       style="font-size:12px;fill:#ffd700;fill-rule:evenodd;stroke:#000000;stroke-width:1.28750002"
       sodipodi:nodetypes="cccccccc"
       id="path621"
       d="m 183.5818,82.41585 c 12.9141,13.42836 16.3819,27.08585 7.7716,48.96375 -2.9536,7.3074 -4.2036,16.0757 -4.0823,25.1897 -1.25,0.0289 -6.5716,-0.0318 -7.8321,-0.1213 0.1107,-9.0033 -1.382,-18.4784 -4.325,-25.9072 -9.9711,-22.342 -2.785,-37.49707 8.125,-48.12495 l 0.1714,0 0.1714,0 0,0 z" />
    <path
       transform="translate(-1.875,-6.09e-6)"
       style="font-size:12px;fill:#ffd700;fill-rule:evenodd;stroke:#000000;stroke-width:1.28750002"
       sodipodi:nodetypes="cccccccccccccc"
       id="path622"
       d="m 190.3665,161.7291 c 2.644,7.0568 7.3107,9.7239 11.1253,11.5928 -5.8141,2.7527 -12.534,-0.2369 -13.7986,-1.6602 0.1538,1.9898 0.3113,7.3668 -0.415,10.9984 -0.4919,2.9284 -1.737,4.6154 -3.8391,6.9518 -2.1789,-2.2827 -3.5265,-4.1222 -4.2528,-6.7162 -0.8825,-3.7658 0.0513,-9.1075 -0.0268,-11.1021 -1.0083,1.2402 -9.0502,4.2248 -14.3418,1.6308 4.9266,-2.1472 9.7007,-4.6472 11.2547,-11.8272 0.5761,0.0355 12.8415,0.0281 14.2941,0.0281 l 0,0.1038 0,0 0,0 0,0 0,0 z" />
    <rect
       y="156.78056"
       x="167.96109"
       width="30.59967"
       transform="translate(-1.875,-6.09e-6)"
       style="font-size:12px;fill:#ffd700;fill-rule:evenodd;stroke:#000000;stroke-width:1.17855096"
       id="rect623"
       height="4.5517678" />
  </g>
</svg>

<?xml version="1.0" encoding="UTF-8" standalone="no"?>
<!DOCTYPE svg PUBLIC "-//W3C//DTD SVG 20010904//EN"
"http://www.w3.org/TR/2001/REC-SVG-20010904/DTD/svg10.dtd">
<!-- Created with Sodipodi ("http://www.sodipodi.com/") --><svg height="6.100000cm" id="svg1350" sodipodi:docbase="E:\sodipodi\travail_drapeau" sodipodi:docname="E:\sodipodi\travail_drapeau\IledeFrance.svg" sodipodi:version="0.34" width="10.15000cm" xmlns="http://www.w3.org/2000/svg" xmlns:sodipodi="http://sodipodi.sourceforge.net/DTD/sodipodi-0.dtd" xmlns:xlink="http://www.w3.org/1999/xlink">
  <metadata>
    <rdf:RDF xmlns:cc="http://web.resource.org/cc/" xmlns:dc="http://purl.org/dc/elements/1.1/" xmlns:rdf="http://www.w3.org/1999/02/22-rdf-syntax-ns#">
      <cc:Work rdf:about="">
        <dc:title>France - Ile de France</dc:title>
        <dc:description></dc:description>
        <dc:subject>
          <rdf:Bag>
            <rdf:li></rdf:li>
            <rdf:li>europe</rdf:li>
            <rdf:li>flag</rdf:li>
            <rdf:li>france</rdf:li>
            <rdf:li>sign</rdf:li>
            <rdf:li>subnational</rdf:li>
          </rdf:Bag>
        </dc:subject>
        <dc:publisher>
          <cc:Agent rdf:about="http://www.openclipart.org">
            <dc:title>Patricia Fidi</dc:title>
          </cc:Agent>
        </dc:publisher>
        <dc:creator>
          <cc:Agent>
            <dc:title>Patricia Fidi</dc:title>
          </cc:Agent>
        </dc:creator>
        <dc:rights>
          <cc:Agent>
            <dc:title>Patricia Fidi</dc:title>
          </cc:Agent>
        </dc:rights>
        <dc:date></dc:date>
        <dc:format>image/svg+xml</dc:format>
        <dc:type rdf:resource="http://purl.org/dc/dcmitype/StillImage"/>
        <cc:license rdf:resource="http://web.resource.org/cc/PublicDomain"/>
        <dc:language>en</dc:language>
      </cc:Work>
      <cc:License rdf:about="http://web.resource.org/cc/PublicDomain">
        <cc:permits rdf:resource="http://web.resource.org/cc/Reproduction"/>
        <cc:permits rdf:resource="http://web.resource.org/cc/Distribution"/>
        <cc:permits rdf:resource="http://web.resource.org/cc/DerivativeWorks"/>
      </cc:License>
    </rdf:RDF>
  </metadata>
  <defs id="defs1352">
    <defs id="defs5117"/>
    <sodipodi:namedview id="namedview5116"/>
  </defs>
  <sodipodi:namedview bordercolor="#000000" borderlayer="top" borderopacity="1" id="base" showgrid="false"/>
  <g id="g916">
    <rect height="215.712328" id="rect625" style="font-size:12;fill:#000099;fill-rule:evenodd;" width="361.289804" x="0.34703196" y="0.61842296"/>
    <g id="g897" transform="translate(-14.62068,-1.896616)">
      <path d="M 128.2868 96.94299 C 139.4844 92.51098 144.9969 85.80253 145.5888 76.3319 C 145.9684 70.63846 140.2856 63.96057 134.2019 63.80629 C 115.1965 63.29227 108.8425 94.27844 108.9571 101.8416 C 109.7595 101.8393 113.713 101.7604 114.6938 101.7984 C 115.56 97.02196 114.8161 91.17058 120.8891 86.23625 C 126.9621 81.30192 129.6471 85.06187 130.4063 88.09839 C 131.1655 91.13488 127.6032 97.25173 128.2868 96.94301 L 128.2868 96.94301 L 128.2868 96.94301 L 128.2868 96.943 L 128.2868 96.943 L 128.2868 96.94299 z " id="path628" sodipodi:nodetypes="cssccssccccc" style="font-size:12;fill:#ffd700;fill-rule:evenodd;stroke:#000000;stroke-width:1.2875;" transform="translate(-1.875,-6.09e-6)"/>
      <path d="M 77.52559 96.94296 C 66.32799 92.51095 60.81549 85.8025 60.22359 76.33187 C 59.84399 70.63843 65.52679 63.96054 71.61049 63.80626 C 90.61581 63.29224 96.96988 94.27841 96.85525 101.8416 C 96.05286 101.8392 92.09933 101.7603 91.11855 101.7983 C 90.25238 97.02193 90.99626 91.17055 84.92327 86.23622 C 78.85029 81.30189 76.16529 85.06184 75.40609 88.09836 C 74.64689 91.13485 78.20919 97.2517 77.52559 96.94298 L 77.52559 96.94298 L 77.52559 96.94298 L 77.52559 96.94297 L 77.52559 96.94297 L 77.52559 96.94296 z " id="path629" sodipodi:nodetypes="cssccssccccc" style="font-size:12;fill:#ffd700;fill-rule:evenodd;stroke:#000000;stroke-width:1.2875;" transform="translate(-1.875,-6.09e-6)"/>
      <path d="M 103.0642 27.66385 C 115.9783 41.09221 119.4461 54.74973 110.8358 76.62764 C 107.8822 83.93504 106.6322 92.70333 106.7535 101.8173 C 105.5035 101.8462 100.1819 101.7855 98.92131 101.696 C 99.03205 92.69272 97.53937 83.21757 94.59638 75.78884 C 84.62527 53.44678 91.81132 38.29173 102.7214 27.66385 L 102.8928 27.66385 L 103.0642 27.66385 L 103.0642 27.66385 z " id="path630" sodipodi:nodetypes="cccccccc" style="font-size:12;fill:#ffd700;fill-rule:evenodd;stroke:#000000;stroke-width:1.2875;" transform="translate(-1.875,-6.09e-6)"/>
      <path d="M 109.8489 106.9771 C 112.4929 114.0339 117.1596 116.701 120.9742 118.5699 C 115.1601 121.3226 108.4402 118.333 107.1756 116.9097 C 107.3294 118.8995 107.4869 124.2765 106.7606 127.9081 C 106.2687 130.8365 105.0236 132.5235 102.9215 134.8599 C 100.7426 132.5772 99.39499 130.7377 98.66868 128.1437 C 97.78612 124.3779 98.71995 119.0362 98.64183 117.0416 C 97.63356 118.2818 89.59169 121.2664 84.30002 118.6724 C 89.22669 116.5252 94.00079 114.0252 95.55471 106.8452 C 96.1309 106.8807 108.3963 106.8733 109.8489 106.8733 L 109.8489 106.9771 L 109.8489 106.9771 L 109.8489 106.9771 L 109.8489 106.9771 L 109.8489 106.9771 z " id="path631" sodipodi:nodetypes="cccccccccccccc" style="font-size:12;fill:#ffd700;fill-rule:evenodd;stroke:#000000;stroke-width:1.2875;" transform="translate(-1.875,-6.09e-6)"/>
      <rect height="4.55176899" id="rect639" style="font-size:12;fill:#ffd700;fill-rule:evenodd;stroke:#000000;stroke-width:1.178551;" transform="translate(-1.875,-6.09e-6)" width="30.5996743" x="87.4434413" y="102.028568"/>
    </g>
    <g id="g903" transform="translate(14.12933,-1.629359)">
      <path d="M 289.3221 96.94298 C 300.5197 92.51097 306.0322 85.80252 306.6241 76.33189 C 307.0037 70.63845 301.3209 63.96056 295.2372 63.80628 C 276.2318 63.29226 269.8778 94.27843 269.9924 101.8416 C 270.7948 101.8393 274.7483 101.7604 275.7291 101.7984 C 276.5953 97.02195 275.8514 91.17057 281.9244 86.23624 C 287.9974 81.30191 290.6824 85.06186 291.4416 88.09838 C 292.2008 91.13487 288.6385 97.25172 289.3221 96.943 L 289.3221 96.943 L 289.3221 96.943 L 289.3221 96.94299 L 289.3221 96.94299 L 289.3221 96.94298 z " id="path614" sodipodi:nodetypes="cssccssccccc" style="font-size:12;fill:#ffd700;fill-rule:evenodd;stroke:#000000;stroke-width:1.2875;" transform="translate(-1.875,-6.09e-6)"/>
      <path d="M 238.5609 96.94295 C 227.3633 92.51094 221.8508 85.80249 221.2589 76.33186 C 220.8793 70.63842 226.5621 63.96053 232.6458 63.80625 C 251.6512 63.29223 258.0052 94.2784 257.8906 101.8416 C 257.0882 101.8392 253.1347 101.7603 252.1539 101.7983 C 251.2877 97.02192 252.0316 91.17054 245.9586 86.23621 C 239.8856 81.30188 237.2006 85.06183 236.4414 88.09835 C 235.6822 91.13484 239.2445 97.25169 238.5609 96.94297 L 238.5609 96.94297 L 238.5609 96.94297 L 238.5609 96.94296 L 238.5609 96.94296 L 238.5609 96.94295 z " id="path615" sodipodi:nodetypes="cssccssccccc" style="font-size:12;fill:#ffd700;fill-rule:evenodd;stroke:#000000;stroke-width:1.2875;" transform="translate(-1.875,-6.09e-6)"/>
      <path d="M 264.0995 27.66384 C 277.0136 41.0922 280.4814 54.74972 271.8711 76.62763 C 268.9175 83.93503 267.6675 92.70332 267.7888 101.8173 C 266.5388 101.8462 261.2172 101.7855 259.9567 101.696 C 260.0674 92.69271 258.5747 83.21756 255.6317 75.78883 C 245.6606 53.44677 252.8467 38.29172 263.7567 27.66384 L 263.9281 27.66384 L 264.0995 27.66384 L 264.0995 27.66384 z " id="path616" sodipodi:nodetypes="cccccccc" style="font-size:12;fill:#ffd700;fill-rule:evenodd;stroke:#000000;stroke-width:1.2875;" transform="translate(-1.875,-6.09e-6)"/>
      <path d="M 270.8842 106.9771 C 273.5282 114.0339 278.1949 116.701 282.0095 118.5699 C 276.1954 121.3226 269.4755 118.333 268.2109 116.9097 C 268.3647 118.8995 268.5222 124.2765 267.7959 127.9081 C 267.304 130.8365 266.0589 132.5235 263.9568 134.8599 C 261.7779 132.5772 260.4303 130.7377 259.704 128.1437 C 258.8215 124.3779 259.7553 119.0362 259.6772 117.0416 C 258.6689 118.2818 250.627 121.2664 245.3354 118.6724 C 250.262 116.5252 255.0361 114.0252 256.5901 106.8452 C 257.1662 106.8807 269.4316 106.8733 270.8842 106.8733 L 270.8842 106.9771 L 270.8842 106.9771 L 270.8842 106.9771 L 270.8842 106.9771 L 270.8842 106.9771 z " id="path617" sodipodi:nodetypes="cccccccccccccc" style="font-size:12;fill:#ffd700;fill-rule:evenodd;stroke:#000000;stroke-width:1.2875;" transform="translate(-1.875,-6.09e-6)"/>
      <rect height="4.55176851" id="rect618" style="font-size:12;fill:#ffd700;fill-rule:evenodd;stroke:#000000;stroke-width:1.178551;" transform="translate(-1.875,-6.09e-6)" width="30.5996724" x="248.478793" y="102.028552"/>
    </g>
    <g id="g909" transform="translate(0,13.74999)">
      <path d="M 208.8044 151.695 C 220.002 147.263 225.5145 140.5545 226.1064 131.0839 C 226.486 125.3905 220.8032 118.7126 214.7195 118.5583 C 195.7141 118.0443 189.3601 149.0304 189.4747 156.5936 C 190.2771 156.5913 194.2306 156.5124 195.2114 156.5504 C 196.0776 151.774 195.3337 145.9226 201.4067 140.9882 C 207.4797 136.0539 210.1647 139.8139 210.9239 142.8504 C 211.6831 145.8869 208.1208 152.0037 208.8044 151.695 L 208.8044 151.695 L 208.8044 151.695 L 208.8044 151.695 L 208.8044 151.695 L 208.8044 151.695 z " id="path619" sodipodi:nodetypes="cssccssccccc" style="font-size:12;fill:#ffd700;fill-rule:evenodd;stroke:#000000;stroke-width:1.2875;" transform="translate(-1.875,-6.09e-6)"/>
      <path d="M 158.0432 151.695 C 146.8456 147.2629 141.3331 140.5545 140.7412 131.0839 C 140.3616 125.3904 146.0444 118.7125 152.1281 118.5583 C 171.1335 118.0442 177.4875 149.0304 177.3729 156.5936 C 176.5705 156.5912 172.617 156.5123 171.6362 156.5503 C 170.77 151.7739 171.5139 145.9225 165.4409 140.9882 C 159.3679 136.0539 156.6829 139.8138 155.9237 142.8504 C 155.1645 145.8868 158.7268 152.0037 158.0432 151.695 L 158.0432 151.695 L 158.0432 151.695 L 158.0432 151.695 L 158.0432 151.695 L 158.0432 151.695 z " id="path620" sodipodi:nodetypes="cssccssccccc" style="font-size:12;fill:#ffd700;fill-rule:evenodd;stroke:#000000;stroke-width:1.2875;" transform="translate(-1.875,-6.09e-6)"/>
      <path d="M 183.5818 82.41585 C 196.4959 95.84421 199.9637 109.5017 191.3534 131.3796 C 188.3998 138.687 187.1498 147.4553 187.2711 156.5693 C 186.0211 156.5982 180.6995 156.5375 179.439 156.448 C 179.5497 147.4447 178.057 137.9696 175.114 130.5408 C 165.1429 108.1988 172.329 93.04373 183.239 82.41585 L 183.4104 82.41585 L 183.5818 82.41585 L 183.5818 82.41585 z " id="path621" sodipodi:nodetypes="cccccccc" style="font-size:12;fill:#ffd700;fill-rule:evenodd;stroke:#000000;stroke-width:1.2875;" transform="translate(-1.875,-6.09e-6)"/>
      <path d="M 190.3665 161.7291 C 193.0105 168.7859 197.6772 171.453 201.4918 173.3219 C 195.6777 176.0746 188.9578 173.085 187.6932 171.6617 C 187.847 173.6515 188.0045 179.0285 187.2782 182.6601 C 186.7863 185.5885 185.5412 187.2755 183.4391 189.6119 C 181.2602 187.3292 179.9126 185.4897 179.1863 182.8957 C 178.3038 179.1299 179.2376 173.7882 179.1595 171.7936 C 178.1512 173.0338 170.1093 176.0184 164.8177 173.4244 C 169.7443 171.2772 174.5184 168.7772 176.0724 161.5972 C 176.6485 161.6327 188.9139 161.6253 190.3665 161.6253 L 190.3665 161.7291 L 190.3665 161.7291 L 190.3665 161.7291 L 190.3665 161.7291 L 190.3665 161.7291 z " id="path622" sodipodi:nodetypes="cccccccccccccc" style="font-size:12;fill:#ffd700;fill-rule:evenodd;stroke:#000000;stroke-width:1.2875;" transform="translate(-1.875,-6.09e-6)"/>
      <rect height="4.55176803" id="rect623" style="font-size:12;fill:#ffd700;fill-rule:evenodd;stroke:#000000;stroke-width:1.178551;" transform="translate(-1.875,-6.09e-6)" width="30.5996705" x="167.961091" y="156.780557"/>
    </g>
  </g>
</svg>
